X: 1
T:Wagenborgen
M:C
L:1/8
Q:80
C:S.S. Kelly 1990
S:March
K:HP
|: e|
{AGAG}A2-A{d}c{gBd}B{e}A{g}B{d}c|
a2-ae{gfg}f2{g}((3fga)|
e2{ag}a3/2f/2{gef}ec{gBd}B{e}A|  !
{g}B2-B2{GdGe}B3e|
{AGAG}A2-A{d}c{gBd}B{e}A{g}B{d}c|
a2-ae{gfg}f2{g}((3fga)|  !
e2{ag}a3/2f/2{gef}ec{g}B3/2c/2|
{g}A4{GAG}A3:| |:
e|  !
a2-ae{gfg}f2a2|
A2-A{d}B{d}c2-ce|
{gfg}f2{ag}a3/2f/2{gef}ec{gBd}B{e}A|  !
{g}B2-B2{GdGe}B3e|1
a2-ae{gfg}f2a2|
A2-A{d}B{d}c2-ce|  !
{gfg}f2a3/2f/2{gef}ec{g}B3/2c/2|
{g}A4{GAG}A3:|2
{AGAG}A2-A{d}c{gBd}B{e}A{g}B{d}c|  !
a2-ae{gfg}f2{g}((3fga)|
e2{ag}a3/2f/2{gef}ec{g}B3/2c/2|
{g}A4{GAG}A3|]  !
